X: 2251
T: YOURSELF ALONG WITH ME
Q: "Irish Jig."
R: Jig.
%R: jig
B: James Kerr "Merry Melodies" v.2 p.28 #251
Z: 2016 John Chambers <jc:trillian.mit.edu>
M: 6/8
L: 1/8
K: Am
uB |\
vc2vA B^GE | vc2vA B^GE | =G2G G2B | G2G G2uB |\
c2A B^GE | vc2vA B^GE | A2A A2c | A2A A2 :|
|: uB |\
cde def | edc BcA | G2g gdB | G2g gdB |\
cde def | edc BcA | A2a aec | A2A A2 :|
